Newaita-dark/apps/32/visual-studio-code-insiders.svg

<?xml version="1.0" encoding="UTF-8"?>
<svg xmlns="http://www.w3.org/2000/svg" xmlns:xlink="http://www.w3.org/1999/xlink" width="32pt" height="32pt" viewBox="0 0 32 32" version="1.1">
<defs>
<linearGradient id="linear0" gradientUnits="userSpaceOnUse" x1="254" y1="233.5" x2="254" y2="254.666672" gradientTransform="matrix(0.062506,0,0,0.062506,-0.00000381506,13.438785)">
<stop offset="0" style="stop-color:rgb(0%,0%,0%);stop-opacity:0.27451;"/>
<stop offset="1" style="stop-color:rgb(0%,0%,0%);stop-opacity:0;"/>
</linearGradient>
<radialGradient id="radial0" gradientUnits="userSpaceOnUse" cx="450.908936" cy="189.579361" fx="450.908936" fy="189.579361" r="21.166656" gradientTransform="matrix(0.00000017417,-0.0781325,-0.140638,-0.000000101539,53.12293,63.595333)">
<stop offset="0" style="stop-color:rgb(0%,0%,0%);stop-opacity:0.313725;"/>
<stop offset="0.222222" style="stop-color:rgb(0%,0%,0%);stop-opacity:0.27451;"/>
<stop offset="1" style="stop-color:rgb(0%,0%,0%);stop-opacity:0;"/>
</radialGradient>
<radialGradient id="radial1" gradientUnits="userSpaceOnUse" cx="450.908936" cy="189.579361" fx="450.908936" fy="189.579361" r="21.166656" gradientTransform="matrix(-0.00000017417,0.0781325,0.140638,0.000000101539,-21.20452,-7.527479)">
<stop offset="0" style="stop-color:rgb(0%,0%,0%);stop-opacity:0.313725;"/>
<stop offset="0.222222" style="stop-color:rgb(0%,0%,0%);stop-opacity:0.27451;"/>
<stop offset="1" style="stop-color:rgb(0%,0%,0%);stop-opacity:0;"/>
</radialGradient>
<radialGradient id="radial2" gradientUnits="userSpaceOnUse" cx="450.908936" cy="189.579361" fx="450.908936" fy="189.579361" r="21.166656" gradientTransform="matrix(-0.00000017417,-0.0781325,0.140638,-0.000000101539,-21.20452,63.595333)">
<stop offset="0" style="stop-color:rgb(0%,0%,0%);stop-opacity:0.313725;"/>
<stop offset="0.222222" style="stop-color:rgb(0%,0%,0%);stop-opacity:0.27451;"/>
<stop offset="1" style="stop-color:rgb(0%,0%,0%);stop-opacity:0;"/>
</radialGradient>
<radialGradient id="radial3" gradientUnits="userSpaceOnUse" cx="450.908936" cy="189.579361" fx="450.908936" fy="189.579361" r="21.166656" gradientTransform="matrix(0.00000017417,0.0781325,-0.140638,0.000000101539,53.122929,-7.527479)">
<stop offset="0" style="stop-color:rgb(0%,0%,0%);stop-opacity:0.313725;"/>
<stop offset="0.222222" style="stop-color:rgb(0%,0%,0%);stop-opacity:0.27451;"/>
<stop offset="1" style="stop-color:rgb(0%,0%,0%);stop-opacity:0;"/>
</radialGradient>
<linearGradient id="linear1" gradientUnits="userSpaceOnUse" x1="275.166656" y1="-803.666687" x2="285.75" y2="233.5" gradientTransform="matrix(0.062506,0,0,0.062506,0,13.438783)">
<stop offset="0" style="stop-color:rgb(25.882353%,25.882353%,25.882353%);stop-opacity:1;"/>
<stop offset="1" style="stop-color:rgb(38.039216%,38.039216%,38.039216%);stop-opacity:1;"/>
</linearGradient>
<linearGradient id="linear2" gradientUnits="userSpaceOnUse" x1="254" y1="233.5" x2="254" y2="-697.833313" >
<stop offset="0" style="stop-color:rgb(25.882353%,25.882353%,25.882353%);stop-opacity:1;"/>
<stop offset="1" style="stop-color:rgb(38.039216%,38.039216%,38.039216%);stop-opacity:1;"/>
</linearGradient>
<linearGradient id="linear3" gradientUnits="userSpaceOnUse" x1="960" y1="1295.118164" x2="960" y2="535.118103" >
<stop offset="0" style="stop-color:rgb(50.588235%,78.039216%,51.764706%);stop-opacity:1;"/>
<stop offset="1" style="stop-color:rgb(64.705882%,83.921569%,65.490196%);stop-opacity:1;"/>
</linearGradient>
<linearGradient id="linear4" gradientUnits="userSpaceOnUse" x1="254" y1="127.666656" x2="254" y2="-73.416664" >
<stop offset="0" style="stop-color:rgb(40%,73.333333%,41.568627%);stop-opacity:1;"/>
<stop offset="1" style="stop-color:rgb(50.588235%,78.039216%,51.764706%);stop-opacity:1;"/>
</linearGradient>
</defs>
<g id="surface1">
<path style=" stroke:none;fill-rule:nonzero;fill:url(#linear0);" d="M 5.125 28.035156 L 26.792969 28.035156 L 26.792969 29.355469 L 5.125 29.355469 Z M 5.125 28.035156 "/>
<path style=" stroke:none;fill-rule:nonzero;fill:url(#radial0);" d="M 26.792969 28.035156 L 29.4375 28.035156 L 29.4375 26.710938 L 26.792969 26.710938 Z M 26.792969 28.035156 "/>
<path style=" stroke:none;fill-rule:nonzero;fill:url(#radial1);" d="M 5.125 28.035156 L 2.480469 28.035156 L 2.480469 29.355469 L 5.125 29.355469 Z M 5.125 28.035156 "/>
<path style=" stroke:none;fill-rule:nonzero;fill:url(#radial2);" d="M 5.125 28.035156 L 2.480469 28.035156 L 2.480469 26.710938 L 5.125 26.710938 Z M 5.125 28.035156 "/>
<path style=" stroke:none;fill-rule:nonzero;fill:url(#radial3);" d="M 26.792969 28.035156 L 29.4375 28.035156 L 29.4375 29.355469 L 26.792969 29.355469 Z M 26.792969 28.035156 "/>
<path style=" stroke:none;fill-rule:nonzero;fill:url(#linear1);" d="M 3.636719 2.894531 L 28.113281 2.894531 C 28.664062 2.894531 29.105469 3.339844 29.105469 3.886719 L 29.105469 27.042969 C 29.105469 27.589844 28.664062 28.035156 28.113281 28.035156 L 3.636719 28.035156 C 3.089844 28.035156 2.644531 27.589844 2.644531 27.042969 L 2.644531 3.886719 C 2.644531 3.339844 3.089844 2.894531 3.636719 2.894531 Z M 3.636719 2.894531 "/>
<path style=" stroke:none;fill-rule:nonzero;fill:rgb(100%,100%,100%);fill-opacity:0.392157;" d="M 3.636719 2.894531 C 3.089844 2.894531 2.644531 3.339844 2.644531 3.886719 L 2.644531 4.054688 C 2.644531 3.503906 3.089844 3.0625 3.636719 3.0625 L 28.113281 3.0625 C 28.664062 3.0625 29.105469 3.503906 29.105469 4.054688 L 29.105469 3.886719 C 29.105469 3.339844 28.664062 2.894531 28.113281 2.894531 Z M 3.636719 2.894531 "/>
<path style=" stroke:none;fill-rule:nonzero;fill:rgb(1.176471%,1.176471%,1.176471%);fill-opacity:0.235294;" d="M 3.636719 28.035156 C 3.089844 28.035156 2.644531 27.589844 2.644531 27.042969 L 2.644531 26.875 C 2.644531 27.425781 3.089844 27.867188 3.636719 27.867188 L 28.113281 27.867188 C 28.664062 27.867188 29.105469 27.425781 29.105469 26.875 L 29.105469 27.042969 C 29.105469 27.589844 28.664062 28.035156 28.113281 28.035156 Z M 3.636719 28.035156 "/>
<path style=" stroke:none;fill-rule:nonzero;fill:rgb(12.941177%,12.941177%,12.941177%);fill-opacity:1;" d="M 3.636719 2.800781 C 3.039062 2.800781 2.550781 3.289062 2.550781 3.886719 L 2.550781 27.042969 C 2.550781 27.640625 3.039062 28.128906 3.636719 28.128906 L 28.113281 28.128906 C 28.714844 28.128906 29.199219 27.640625 29.199219 27.042969 L 29.199219 3.886719 C 29.199219 3.289062 28.714844 2.800781 28.113281 2.800781 Z M 3.636719 2.988281 L 28.113281 2.988281 C 28.613281 2.988281 29.011719 3.390625 29.011719 3.886719 L 29.011719 27.042969 C 29.011719 27.542969 28.613281 27.941406 28.113281 27.941406 L 3.636719 27.941406 C 3.140625 27.941406 2.738281 27.542969 2.738281 27.042969 L 2.738281 3.886719 C 2.738281 3.390625 3.140625 2.988281 3.636719 2.988281 Z M 3.636719 2.988281 "/>
<path style="fill-rule:nonzero;fill:url(#linear2);stroke-width:3;stroke-linecap:round;stroke-linejoin:round;stroke:rgb(12.941177%,12.941177%,12.941177%);stroke-opacity:1;stroke-miterlimit:4;" d="M 105.802396 -115.759477 L 402.149097 -115.759477 C 408.023536 -115.759477 412.773082 -111.009931 412.773082 -105.135492 L 412.773082 170.025732 C 412.773082 175.837677 408.023536 180.587223 402.149097 180.587223 L 105.802396 180.587223 C 99.990451 180.587223 95.240905 175.837677 95.240905 170.025732 L 95.240905 -105.135492 C 95.240905 -111.009931 99.990451 -115.759477 105.802396 -115.759477 Z M 105.802396 -115.759477 " transform="matrix(0.062506,0,0,0.062506,0,13.438783)"/>
<path style="fill-rule:nonzero;fill:url(#linear3);stroke-width:11.338583;stroke-linecap:round;stroke-linejoin:round;stroke:rgb(12.941177%,12.941177%,12.941177%);stroke-opacity:1;stroke-miterlimit:4;" d="M 680.250036 534.988309 C 670.093525 534.988309 659.937014 538.531278 651.670086 546.798206 L 571.835186 626.869304 C 564.276853 634.427638 560.02529 644.584148 560.02529 655.213055 L 560.02529 1175.084697 C 560.02529 1185.713604 564.276853 1195.870115 571.835186 1203.428449 L 651.670086 1283.499547 C 667.25915 1299.08861 692.768526 1299.08861 708.357589 1283.499547 L 719.931288 1271.68965 L 1199.88548 791.735458 L 1199.88548 1038.326096 L 1355.303717 1193.744334 C 1358.37429 1188.075583 1360.027676 1181.698239 1360.027676 1175.084697 L 1360.027676 655.213055 C 1360.027676 644.584148 1355.776113 634.427638 1348.217779 626.869304 L 1268.382879 546.798206 C 1260.824545 539.47607 1250.904232 535.224507 1240.511524 535.224507 C 1229.882617 534.988309 1219.25371 539.239872 1211.695376 546.798206 L 719.931288 1038.562294 C 719.931288 948.334685 719.931288 998.172448 719.931288 575.141957 C 719.931288 551.285966 700.563058 535.224507 680.250036 534.988309 Z M 1208.861001 1280.192776 C 1210.514387 1282.318557 1212.40397 1284.20814 1214.293553 1285.861526 Z M 1208.861001 1280.192776 " transform="matrix(0.016538,0,0,0.016538,0,0)"/>
<path style="fill-rule:nonzero;fill:url(#linear4);stroke-width:3;stroke-linecap:round;stroke-linejoin:round;stroke:rgb(12.941177%,12.941177%,12.941177%);stroke-opacity:1;stroke-miterlimit:4;" d="M 179.732836 -73.388523 C 176.983099 -73.388523 174.35835 -72.263631 172.421035 -70.326316 L 151.298052 -49.140839 C 149.298243 -47.14103 148.17335 -44.453786 148.17335 -41.641555 L 148.17335 95.90781 C 148.17335 98.720041 149.298243 101.407285 151.298052 103.407094 L 172.421035 124.592571 C 179.107896 131.216938 190.48181 126.529886 190.48181 117.093287 L 190.48181 -5.520004 L 320.594385 124.592571 C 324.718991 128.717177 331.405852 128.717177 335.592952 124.592571 L 356.715935 103.407094 C 358.715744 101.407285 359.840637 98.720041 359.840637 95.90781 L 359.840637 -41.641555 C 359.840637 -44.453786 358.715744 -47.14103 356.715935 -49.140839 L 335.592952 -70.326316 C 328.906091 -76.950683 317.532177 -72.263631 317.469683 -62.827032 C 317.469683 49.09978 317.469683 35.913539 317.469683 59.786259 L 187.419602 -70.326316 C 185.357299 -72.326125 182.607562 -73.451017 179.732836 -73.388523 Z M 179.732836 -73.388523 " transform="matrix(0.062506,0,0,0.062506,0,13.438783)"/>
</g>
</svg>

<svg xmlns="http://www.w3.org/2000/svg" width="32pt" height="32pt" viewBox="0 0 32 32"><defs><linearGradient id="a" gradientUnits="userSpaceOnUse" x1="254" y1="233.5" x2="254" y2="254.667" gradientTransform="matrix(.0625 0 0 .0625 0 13.439)"><stop offset="0" stop-opacity=".275"/><stop offset="1" stop-opacity="0"/></linearGradient><radialGradient id="b" gradientUnits="userSpaceOnUse" cx="450.909" cy="189.579" fx="450.909" fy="189.579" r="21.167" gradientTransform="matrix(0 -.07813 -.14064 0 53.123 63.595)"><stop offset="0" stop-opacity=".314"/><stop offset=".222" stop-opacity=".275"/><stop offset="1" stop-opacity="0"/></radialGradient><radialGradient id="c" gradientUnits="userSpaceOnUse" cx="450.909" cy="189.579" fx="450.909" fy="189.579" r="21.167" gradientTransform="matrix(0 .07813 .14064 0 -21.205 -7.527)"><stop offset="0" stop-opacity=".314"/><stop offset=".222" stop-opacity=".275"/><stop offset="1" stop-opacity="0"/></radialGradient><radialGradient id="d" gradientUnits="userSpaceOnUse" cx="450.909" cy="189.579" fx="450.909" fy="189.579" r="21.167" gradientTransform="matrix(0 -.07813 .14064 0 -21.205 63.595)"><stop offset="0" stop-opacity=".314"/><stop offset=".222" stop-opacity=".275"/><stop offset="1" stop-opacity="0"/></radialGradient><radialGradient id="e" gradientUnits="userSpaceOnUse" cx="450.909" cy="189.579" fx="450.909" fy="189.579" r="21.167" gradientTransform="matrix(0 .07813 -.14064 0 53.123 -7.527)"><stop offset="0" stop-opacity=".314"/><stop offset=".222" stop-opacity=".275"/><stop offset="1" stop-opacity="0"/></radialGradient><linearGradient id="f" gradientUnits="userSpaceOnUse" x1="275.167" y1="-803.667" x2="285.75" y2="233.5" gradientTransform="matrix(.0625 0 0 .0625 0 13.439)"><stop offset="0" stop-color="#424242"/><stop offset="1" stop-color="#616161"/></linearGradient><linearGradient id="g" gradientUnits="userSpaceOnUse" x1="254" y1="233.5" x2="254" y2="-697.833"><stop offset="0" stop-color="#424242"/><stop offset="1" stop-color="#616161"/></linearGradient><linearGradient id="h" gradientUnits="userSpaceOnUse" x1="960" y1="1295.118" x2="960" y2="535.118"><stop offset="0" stop-color="#81c784"/><stop offset="1" stop-color="#a5d6a7"/></linearGradient><linearGradient id="i" gradientUnits="userSpaceOnUse" x1="254" y1="127.667" x2="254" y2="-73.417"><stop offset="0" stop-color="#66bb6a"/><stop offset="1" stop-color="#81c784"/></linearGradient></defs><path d="M5.125 28.035h21.668v1.32H5.125zm0 0" fill="url(#a)"/><path d="M26.793 28.035h2.645v-1.324h-2.645zm0 0" fill="url(#b)"/><path d="M5.125 28.035H2.48v1.32h2.645zm0 0" fill="url(#c)"/><path d="M5.125 28.035H2.48v-1.324h2.645zm0 0" fill="url(#d)"/><path d="M26.793 28.035h2.645v1.32h-2.645zm0 0" fill="url(#e)"/><path d="M3.637 2.895h24.476c.551 0 .992.445.992.992v23.156a.991.991 0 0 1-.992.992H3.637a.994.994 0 0 1-.992-.992V3.887c0-.547.445-.992.992-.992zm0 0" fill="url(#f)"/><path d="M3.637 2.895a.994.994 0 0 0-.992.992v.168c0-.551.445-.992.992-.992h24.476c.551 0 .992.44.992.992v-.168a.991.991 0 0 0-.992-.992zm0 0" fill="#fff" fill-opacity=".392"/><path d="M3.637 28.035a.994.994 0 0 1-.992-.992v-.168c0 .55.445.992.992.992h24.476c.551 0 .992-.441.992-.992v.168a.991.991 0 0 1-.992.992zm0 0" fill="#030303" fill-opacity=".235"/><path d="M3.637 2.8c-.598 0-1.086.49-1.086 1.087v23.156c0 .598.488 1.086 1.086 1.086h24.476c.602 0 1.086-.488 1.086-1.086V3.887c0-.598-.484-1.086-1.086-1.086zm0 .188h24.476c.5 0 .899.403.899.899v23.156c0 .5-.399.898-.899.898H3.637a.896.896 0 0 1-.899-.898V3.887c0-.496.403-.899.899-.899zm0 0" fill="#212121"/><path d="M105.802-115.76H402.15c5.875 0 10.624 4.75 10.624 10.625v275.16c0 5.813-4.75 10.562-10.624 10.562H105.802c-5.812 0-10.561-4.75-10.561-10.561v-275.161c0-5.875 4.75-10.624 10.561-10.624zm0 0" transform="matrix(.0625 0 0 .0625 0 13.439)" fill="url(#g)" stroke-width="3" stroke-linecap="round" stroke-linejoin="round" stroke="#212121"/><path d="M680.25 534.988c-10.156 0-20.313 3.543-28.58 11.81l-79.835 80.071c-7.558 7.559-11.81 17.715-11.81 28.344v519.872c0 10.629 4.252 20.785 11.81 28.343l79.835 80.072c15.59 15.589 41.099 15.589 56.688 0l11.573-11.81 479.954-479.955v246.591l155.419 155.418a39.091 39.091 0 0 0 4.724-18.66v-519.87c0-10.63-4.252-20.786-11.81-28.345l-79.835-80.07c-7.558-7.323-17.479-11.574-27.871-11.574-10.63-.237-21.258 4.015-28.817 11.573l-491.764 491.764v-463.42c0-23.856-19.368-39.917-39.681-40.154zm528.611 745.205c1.653 2.126 3.543 4.015 5.433 5.669zm0 0" transform="rotate(.891) scale(.01654)" fill="url(#h)" stroke-width="11.339" stroke-linecap="round" stroke-linejoin="round" stroke="#212121"/><path d="M179.733-73.389c-2.75 0-5.375 1.125-7.312 3.063l-21.123 21.185c-2 2-3.125 4.687-3.125 7.5V95.907c0 2.812 1.125 5.5 3.125 7.5l21.123 21.185c6.687 6.624 18.06 1.937 18.06-7.5V-5.52l130.113 130.113c4.125 4.124 10.812 4.124 14.999 0l21.123-21.186c2-2 3.125-4.687 3.125-7.5V-41.641c0-2.812-1.125-5.499-3.125-7.499l-21.123-21.185c-6.687-6.625-18.06-1.938-18.123 7.499V59.786L187.42-70.326c-2.063-2-4.812-3.125-7.687-3.063zm0 0" transform="matrix(.0625 0 0 .0625 0 13.439)" fill="url(#i)" stroke-width="3" stroke-linecap="round" stroke-linejoin="round" stroke="#212121"/></svg>
